packages/flame/svg/Icons/icon-cc-interac.svg

<svg xmlns="http://www.w3.org/2000/svg" viewBox="0 0 16 16">
  <g id="Symbols" fill="none" fill-rule="evenodd">
    <g id="cc-interac">
      <path id="base-1" fill="#232A3B" d="M14.5,3 C15.3284271,3 16,3.67157288 16,4.5 L16,11.5 C16,12.3284271 15.3284271,13 14.5,13 L1.5,13 C0.671572875,13 0,12.3284271 0,11.5 L0,4.5 C0,3.67157288 0.671572875,3 1.5,3 L14.5,3 Z M2.75668573,10.0709723 C2.49294712,10.0709723 2.27914474,10.2918723 2.27914474,10.5643662 L2.27914474,10.5643662 L2.27914474,12.9986246 L3.27514474,12.9979723 L3.26660003,12.9923989 C3.2480087,12.9731904 3.23650972,12.9466541 3.23650972,12.9173429 L3.23650972,12.9173429 L3.23422673,10.5643662 C3.23422673,10.2918723 3.02042434,10.0709723 2.75668573,10.0709723 Z M3.44224265,10.997475 L3.44197923,12.9173429 L3.43390582,12.9586594 C3.42870716,12.9713584 3.42118458,12.9827946 3.41188892,12.9923989 L3.41188892,12.9923989 L3.40314474,12.9979723 L4.92466244,12.9986246 L4.9248036,12.380629 L4.91637396,12.2741533 C4.88835688,12.0997039 4.79184815,11.9429143 4.64704912,11.8429172 L4.64704912,11.8429172 L3.44224265,10.997475 Z M2.08012908,11.9718901 L1.08105554,12.2154798 L1.07306506,12.2175664 C1.02352694,12.2957661 0.999779436,12.378614 1.00000596,12.4632427 C1.00024285,12.7051099 1.19011108,12.9010376 1.42420718,12.9009858 C1.45343873,12.901101 1.48261207,12.8982752 1.51131221,12.8925412 C1.56706996,12.8810194 1.83795604,12.8161529 2.06458715,12.7599957 L2.06458715,12.7599957 L2.08012908,12.7558225 L2.08012908,11.9718901 Z M2.08012908,10.9684166 L1.08105554,11.212097 L1.07306506,11.2142744 C0.983717307,11.3554972 0.977240943,11.5273659 1.05144186,11.6686262 C1.12564278,11.8098865 1.26864845,11.8979359 1.42420718,11.898141 C1.45347884,11.8981863 1.48267418,11.8950543 1.51131221,11.8887956 C1.56706996,11.876548 1.83795604,11.8124073 2.06458715,11.7560687 L2.06458715,11.7560687 L2.08012908,11.7523491 L2.08012908,10.9684166 Z M2.08007639,6.36222249 L1.30605344,6.5511973 L1.30631686,10.9375356 L2.08007639,10.7484701 L2.08007639,6.36222249 Z M3.87917268,7.50562438 C3.58291884,7.57665559 3.33135807,7.77760193 3.19023518,8.05594658 L3.19023518,7.7476718 L2.49330719,7.9180485 L2.49409746,9.88672503 C2.74336778,9.7848761 3.0268642,9.83608324 3.22790459,10.0192705 L3.22790459,8.74815865 C3.22790459,8.44369421 3.37454308,8.2004674 3.58405174,8.1527474 C3.74166617,8.11700277 3.87328958,8.17524656 3.87328958,8.46528614 L3.87381643,10.3198339 L4.60788698,10.1420179 L4.60788698,8.18014557 C4.60788698,7.70448792 4.43060367,7.37199025 3.87917268,7.50562438 Z M5.8877425,6.47969986 L5.15323291,6.65896737 L5.15323291,7.27034576 L4.79699796,7.35725784 L4.79699796,7.91810384 L5.15244265,7.83073815 L5.15244265,9.19220952 C5.15244265,9.7048668 5.23043276,9.9111469 5.25642947,9.96566645 L5.26474842,9.98140385 L6.0496595,9.78889088 C6.0496595,9.78889088 5.8877425,9.66786717 5.8877425,9.03752779 L5.8877425,9.03752779 L5.8877425,7.65119848 L6.40677253,7.52391492 L6.40677253,6.96370398 L5.8877425,7.09107826 L5.8877425,6.47969986 Z M8.64035781,7.57653484 C8.65159716,6.91571272 8.36077878,6.42290854 7.55496952,6.61224623 C7.14613788,6.70841199 6.86550516,6.91888801 6.69436838,7.24185983 C6.55053972,7.51402709 6.48354261,7.86866103 6.48354261,8.35475176 C6.48354261,9.15183895 6.71702271,9.70433849 7.59263893,9.48959852 C8.51698829,9.26379041 8.59083439,8.61294777 8.59662968,8.35057853 L8.59662968,8.35057853 L8.59601503,8.23118782 L7.93096116,8.39584902 C7.93096116,8.39584902 7.92946843,8.47613836 7.92630736,8.50770976 C7.90698971,8.70348874 7.83893891,8.86179937 7.59430727,8.91514415 C7.31112814,8.97719829 7.21743755,8.75810364 7.21743755,8.29641724 L7.21743755,8.29641724 L7.21743755,8.27273869 L8.63710893,7.92799349 C8.63710893,7.92799349 8.63605524,7.81286674 8.64035781,7.57653484 Z M10.3821413,5.95291196 C10.3180102,5.94102395 10.2520341,5.94560368 10.1900185,5.96624816 C9.77477692,6.0756594 9.59582527,6.5470531 9.59582527,6.5470531 L9.59582527,6.5470531 L9.59582527,6.18860881 L8.9050438,6.35798757 L8.90627311,9.09227061 L9.63691917,8.91654128 L9.63648013,7.40673875 C9.63648013,7.05981622 9.76494248,6.83255655 10.0201988,6.72840721 C10.1348847,6.67867328 10.2577737,6.65224461 10.3821413,6.65056738 L10.3821413,6.65056738 Z M12.5531988,6.29599513 C12.5523208,5.78459284 12.3105868,5.45581479 11.5854726,5.62845956 C11.0273682,5.76191224 10.7040611,6.01675152 10.595092,6.39551762 C10.5593112,6.5309812 10.5434456,6.67123302 10.5480272,6.81157064 L10.5480272,6.81157064 L11.2295888,6.64527645 C11.228669,6.59844314 11.2301932,6.55159264 11.2341548,6.50492886 C11.2396449,6.32991381 11.3609378,6.18179197 11.5270806,6.14721036 C11.769078,6.0834325 11.8373044,6.21343772 11.8345824,6.36539778 C11.8325628,6.5459354 11.8220259,6.64908679 11.3359237,6.85684113 C10.7953808,7.08791114 10.4362482,7.28822624 10.4362482,7.92165018 C10.4362482,8.38741909 10.7172322,8.72717455 11.2478528,8.5978951 C11.7530971,8.47523839 11.8996477,8.09384134 11.8996477,8.09384134 C11.9223935,8.17917748 11.952394,8.2622698 11.9892992,8.3421486 L11.9892992,8.3421486 L12.6583922,8.17857608 C12.6583922,8.17857608 12.5531988,8.09275267 12.5531988,7.50704872 L12.5531988,7.50704872 Z M11.8299286,7.05670262 L11.8299286,7.43764607 C11.8299286,7.72768565 11.6796022,7.93643794 11.4630689,7.99286728 C11.2611995,8.04439762 11.1501231,7.92273885 11.1501231,7.73748367 C11.1501231,7.5235602 11.2509261,7.38466417 11.4739571,7.27207765 C11.5980984,7.21043199 11.7171523,7.13840024 11.8299286,7.05670262 L11.8299286,7.05670262 Z M14.8500248,5.22002722 C14.7398264,5.07115173 14.5221517,4.91710506 13.9490322,5.05164641 C13.0497958,5.26212242 12.8407262,5.92303526 12.8682099,6.75577635 C12.8964839,7.60983722 13.0747331,8.15326452 13.9849455,7.93280904 C14.645609,7.77395408 14.9982439,7.33830502 15,6.64700017 L15,6.64700017 L14.9992975,6.53377859 L14.2968377,6.70524397 C14.2968377,6.70524397 14.2955206,6.81157064 14.2949937,6.84477505 L14.2920985,6.91610477 C14.2797597,7.10768862 14.224699,7.30397162 13.9882822,7.35445361 C13.6816585,7.4207717 13.6119393,7.17945006 13.6119393,6.65226207 L13.6119393,6.65226207 L13.611149,6.41021465 C13.611149,5.89146385 13.7186254,5.63054617 13.9846821,5.56150641 C14.2084155,5.50362551 14.2940278,5.62464921 14.293501,5.94290347 C14.293501,5.94607875 14.2940278,6.04405897 14.2940278,6.04405897 L14.2940278,6.04405897 L14.9975414,5.87132348 L14.9969267,5.8220612 C14.9969267,5.55370428 14.9560085,5.36209853 14.8500248,5.22002722 Z M7.58447283,7.1215619 C7.84543667,7.05987065 7.93464907,7.21727405 7.93587837,7.51547865 C7.93605399,7.57716989 7.93587837,7.61654342 7.93464907,7.63441574 L7.93464907,7.63441574 L7.22051082,7.81014507 C7.22586707,7.41513965 7.34923658,7.17672113 7.58447283,7.1215619 Z"/>
      <path id="details-1" d="M2.75668573,10.0709723 C3.02042434,10.0709723 3.23422673,10.2918723 3.23422673,10.5643662 L3.23650972,12.9173429 C3.23650972,12.9466541 3.2480087,12.9731904 3.26660003,12.9923989 L3.27514474,12.9979723 L2.27914474,12.9986246 L2.27914474,10.5643662 C2.27914474,10.2918723 2.49294712,10.0709723 2.75668573,10.0709723 Z M3.44224265,10.997475 L4.64704912,11.8429172 C4.79184815,11.9429143 4.88835688,12.0997039 4.91637396,12.2741533 L4.9248036,12.380629 L4.92466244,12.9986246 L3.40314474,12.9979723 L3.41188892,12.9923989 C3.42118458,12.9827946 3.42870716,12.9713584 3.43390582,12.9586594 L3.44197923,12.9173429 L3.44224265,10.997475 Z M2.08012908,11.9718901 L2.08012908,12.7558225 L2.06458715,12.7599957 C1.83795604,12.8161529 1.56706996,12.8810194 1.51131221,12.8925412 C1.48261207,12.8982752 1.45343873,12.901101 1.42420718,12.9009858 C1.19011108,12.9010376 1.00024285,12.7051099 1.00000596,12.4632427 C0.999779436,12.378614 1.02352694,12.2957661 1.06832346,12.2249149 L1.07306506,12.2175664 L1.08105554,12.2154798 L2.08012908,11.9718901 Z M2.08012908,10.9684166 L2.08012908,11.7523491 L2.06458715,11.7560687 C1.83795604,11.8124073 1.56706996,11.876548 1.51131221,11.8887956 C1.48267418,11.8950543 1.45347884,11.8981863 1.42420718,11.898141 C1.26864845,11.8979359 1.12564278,11.8098865 1.05144186,11.6686262 C0.977240943,11.5273659 0.983717307,11.3554972 1.06832346,11.2206249 L1.07306506,11.2142744 L1.08105554,11.212097 L2.08012908,10.9684166 Z M2.08007639,6.36222249 L2.08007639,10.7484701 L1.30631686,10.9375356 L1.30605344,6.5511973 L2.08007639,6.36222249 Z M3.87917268,7.50562438 C4.43060367,7.37199025 4.60788698,7.70448792 4.60788698,8.18014557 L4.60788698,8.18014557 L4.60788698,10.1420179 L3.87381643,10.3198339 L3.87328958,8.46528614 C3.87328958,8.17524656 3.74166617,8.11700277 3.58405174,8.1527474 C3.37454308,8.2004674 3.22790459,8.44369421 3.22790459,8.74815865 L3.22790459,8.74815865 L3.22790459,10.0192705 C3.0268642,9.83608324 2.74336778,9.7848761 2.49409746,9.88672503 L2.49409746,9.88672503 L2.49330719,7.9180485 L3.19023518,7.7476718 L3.19023518,8.05594658 C3.33135807,7.77760193 3.58291884,7.57665559 3.87917268,7.50562438 Z M5.8877425,6.47969986 L5.8877425,7.09107826 L6.40677253,6.96370398 L6.40677253,7.52391492 L5.8877425,7.65119848 L5.8877425,9.03752779 L5.8877425,9.03752779 C5.8877425,9.66786717 6.0496595,9.78889088 6.0496595,9.78889088 L5.26474842,9.98140385 L5.25642947,9.96566645 C5.23043276,9.9111469 5.15244265,9.7048668 5.15244265,9.19220952 L5.15244265,7.83073815 L4.79699796,7.91810384 L4.79699796,7.35725784 L5.15323291,7.27034576 L5.15323291,6.65896737 L5.8877425,6.47969986 Z M8.64035781,7.57653484 C8.63605524,7.81286674 8.63710893,7.92799349 8.63710893,7.92799349 L7.21743755,8.27273869 L7.21743755,8.29641724 C7.21743755,8.75810364 7.31112814,8.97719829 7.59430727,8.91514415 C7.83893891,8.86179937 7.90698971,8.70348874 7.92630736,8.50770976 C7.92946843,8.47613836 7.93096116,8.39584902 7.93096116,8.39584902 L8.59601503,8.23118782 L8.59662968,8.35057853 L8.59662968,8.35057853 C8.59083439,8.61294777 8.51698829,9.26379041 7.59263893,9.48959852 C6.71702271,9.70433849 6.48354261,9.15183895 6.48354261,8.35475176 C6.48354261,7.86866103 6.55053972,7.51402709 6.69436838,7.24185983 C6.86550516,6.91888801 7.14613788,6.70841199 7.55496952,6.61224623 C8.36077878,6.42290854 8.65159716,6.91571272 8.64035781,7.57653484 Z M10.3821413,5.95291196 L10.3821413,6.65056738 C10.2577737,6.65224461 10.1348847,6.67867328 10.0201988,6.72840721 C9.76494248,6.83255655 9.63648013,7.05981622 9.63648013,7.40673875 L9.63691917,8.91654128 L8.90627311,9.09227061 L8.9050438,6.35798757 L9.59582527,6.18860881 L9.59582527,6.5470531 C9.59582527,6.5470531 9.77477692,6.0756594 10.1900185,5.96624816 C10.2520341,5.94560368 10.3180102,5.94102395 10.3821413,5.95291196 Z M12.5531988,6.29599513 L12.5531988,7.50704872 C12.5531988,8.09275267 12.6583922,8.17857608 12.6583922,8.17857608 L11.9892992,8.3421486 C11.952394,8.2622698 11.9223935,8.17917748 11.8996477,8.09384134 C11.8996477,8.09384134 11.7530971,8.47523839 11.2478528,8.5978951 C10.7172322,8.72717455 10.4362482,8.38741909 10.4362482,7.92165018 C10.4362482,7.28822624 10.7953808,7.08791114 11.3359237,6.85684113 C11.8220259,6.64908679 11.8325628,6.5459354 11.8345824,6.36539778 C11.8373044,6.21343772 11.769078,6.0834325 11.5270806,6.14721036 C11.3609378,6.18179197 11.2396449,6.32991381 11.2341548,6.50492886 C11.2301932,6.55159264 11.228669,6.59844314 11.2295888,6.64527645 L10.5480272,6.81157064 C10.5434456,6.67123302 10.5593112,6.5309812 10.595092,6.39551762 C10.7040611,6.01675152 11.0273682,5.76191224 11.5854726,5.62845956 C12.3105868,5.45581479 12.5523208,5.78459284 12.5531988,6.29599513 Z M11.8299286,7.05670262 C11.7171523,7.13840024 11.5980984,7.21043199 11.4739571,7.27207765 C11.2509261,7.38466417 11.1501231,7.5235602 11.1501231,7.73748367 C11.1501231,7.92273885 11.2611995,8.04439762 11.4630689,7.99286728 C11.6796022,7.93643794 11.8299286,7.72768565 11.8299286,7.43764607 L11.8299286,7.05670262 Z M14.8500248,5.22002722 C14.9560085,5.36209853 14.9969267,5.55370428 14.9969267,5.8220612 L14.9975414,5.87132348 L14.2940278,6.04405897 C14.2940278,6.04405897 14.293501,5.94607875 14.293501,5.94290347 C14.2940278,5.62464921 14.2084155,5.50362551 13.9846821,5.56150641 C13.7186254,5.63054617 13.611149,5.89146385 13.611149,6.41021465 L13.6119393,6.65226207 L13.6119393,6.65226207 C13.6119393,7.17945006 13.6816585,7.4207717 13.9882822,7.35445361 C14.224699,7.30397162 14.2797597,7.10768862 14.2920985,6.91610477 L14.2949937,6.84477505 C14.2955206,6.81157064 14.2968377,6.70524397 14.2968377,6.70524397 L14.9992975,6.53377859 L15,6.64700017 L15,6.64700017 C14.9982439,7.33830502 14.645609,7.77395408 13.9849455,7.93280904 C13.0747331,8.15326452 12.8964839,7.60983722 12.8682099,6.75577635 C12.8407262,5.92303526 13.0497958,5.26212242 13.9490322,5.05164641 C14.5221517,4.91710506 14.7398264,5.07115173 14.8500248,5.22002722 Z M7.58447283,7.1215619 C7.34923658,7.17672113 7.22586707,7.41513965 7.22051082,7.81014507 L7.93464907,7.63441574 C7.93587837,7.61654342 7.93605399,7.57716989 7.93587837,7.51547865 C7.93464907,7.21727405 7.84543667,7.05987065 7.58447283,7.1215619 Z"/>
    </g>
  </g>
</svg>

<svg xmlns="http://www.w3.org/2000/svg" viewBox="0 0 16 16"><g id="cc-interac"><path id="base-1" d="M14.5 3A1.5 1.5 0 0 1 16 4.5v7a1.5 1.5 0 0 1-1.5 1.5h-13A1.5 1.5 0 0 1 0 11.5v-7A1.5 1.5 0 0 1 1.5 3h13zM2.757 10.071a.486.486 0 0 0-.478.493V13l.996-.001-.008-.006a.108.108 0 0 1-.03-.075l-.003-2.353a.486.486 0 0 0-.477-.493zm.685.926v1.92l-.008.042a.107.107 0 0 1-.022.033l-.009.006h1.522v-.617l-.009-.107a.648.648 0 0 0-.269-.431l-1.205-.846zm-1.362.975l-.999.243-.008.003a.451.451 0 0 0-.073.245.431.431 0 0 0 .511.43c.056-.012.327-.077.554-.133l.015-.004v-.784zm0-1.004l-.999.244-.008.002a.453.453 0 0 0-.022.455.423.423 0 0 0 .46.22c.056-.012.327-.077.554-.133l.015-.004v-.784zm0-4.606l-.774.19v4.386l.774-.19V6.362zm1.8 1.144a1.05 1.05 0 0 0-.69.55v-.308l-.697.17.001 1.969a.695.695 0 0 1 .734.132V8.75c0-.305.147-.549.356-.596.158-.036.29.022.29.312v1.855l.734-.178V8.18c0-.476-.177-.808-.729-.674zM5.887 6.48l-.735.179v.611l-.356.087v.561l.355-.087v1.361c0 .513.078.72.104.774l.009.015.785-.192s-.162-.121-.162-.751V7.65l.519-.127v-.56l-.52.127v-.61zM8.64 7.577c.012-.661-.28-1.154-1.085-.965-.409.096-.69.307-.86.63-.144.272-.211.627-.211 1.113 0 .797.233 1.35 1.109 1.135.924-.226.998-.877 1.004-1.14l-.001-.119-.665.165s-.002.08-.005.112c-.019.195-.087.354-.332.407-.283.062-.377-.157-.377-.619v-.023l1.42-.345.003-.351zm1.742-1.624a.385.385 0 0 0-.192.013c-.415.11-.594.581-.594.581V6.19l-.691.169.001 2.734.73-.175v-1.51c0-.347.129-.574.384-.679a.941.941 0 0 1 .362-.077zm2.171.343c0-.511-.242-.84-.968-.668-.558.134-.88.389-.99.768a1.445 1.445 0 0 0-.047.416l.682-.167a1.31 1.31 0 0 1 .004-.14.374.374 0 0 1 .293-.358c.242-.064.31.066.308.218-.002.18-.013.284-.5.492-.54.23-.899.431-.899 1.065 0 .465.281.805.812.676.505-.123.652-.504.652-.504.022.085.052.168.09.248l.668-.163s-.105-.086-.105-.672zm-.723.76v.382c0 .29-.15.498-.367.555-.202.051-.313-.07-.313-.256 0-.213.1-.352.324-.465a2.63 2.63 0 0 0 .356-.215zm3.02-1.836c-.11-.149-.328-.303-.901-.168-.9.21-1.108.871-1.08 1.704.027.854.206 1.397 1.116 1.177.66-.159 1.013-.595 1.015-1.286v-.113l-.703.171-.002.14-.003.071c-.012.192-.067.388-.304.438-.306.067-.376-.175-.376-.702V6.41c0-.519.107-.78.373-.848.223-.058.309.063.309.38v.102l.704-.173-.001-.049c0-.268-.041-.46-.147-.602zM7.584 7.122c.261-.062.35.095.352.393l-.001.12-.714.175c.005-.395.128-.633.363-.688z"/><path id="details-1" d="M2.757 10.071c.263 0 .477.22.477.493l.003 2.353c0 .03.011.056.03.075l.008.006H2.28v-2.434c0-.272.214-.493.478-.493zm.685.926l1.205.846c.145.1.241.257.27.431l.008.107v.618l-1.522-.001.009-.006a.107.107 0 0 0 .022-.033l.008-.042v-1.92zm-1.362.975v.784l-.015.004c-.227.056-.498.121-.554.133a.431.431 0 0 1-.511-.43c0-.084.024-.167.068-.238l.005-.007.008-.003 1-.243zm0-1.004v.784l-.015.004c-.227.056-.498.12-.554.133a.423.423 0 0 1-.46-.22.451.451 0 0 1 .017-.448l.005-.007.008-.002 1-.244zm0-4.606v4.386l-.774.19V6.55l.774-.189zm1.8 1.144c.55-.134.728.198.728.674v1.962l-.734.178V8.465c0-.29-.132-.348-.29-.312-.21.047-.356.29-.356.595v1.271a.695.695 0 0 0-.734-.132V7.918l.696-.17v.308a1.05 1.05 0 0 1 .69-.55zM5.887 6.48v.611l.519-.127v.56l-.52.127v1.387c0 .63.163.75.163.75l-.785.193-.009-.015c-.026-.055-.104-.261-.104-.774V7.831l-.355.087v-.56l.356-.088v-.61l.735-.18zM8.64 7.577c-.004.236-.003.351-.003.351l-1.42.345v.023c0 .462.094.681.377.62.245-.054.313-.213.332-.408.003-.032.005-.112.005-.112l.665-.165v.12c-.005.262-.079.913-1.003 1.139-.876.214-1.11-.338-1.11-1.135 0-.486.068-.841.211-1.113.172-.323.452-.534.861-.63.806-.19 1.097.304 1.085.965zm1.742-1.624v.698a.941.941 0 0 0-.362.077c-.255.105-.384.332-.384.679v1.51l-.73.175-.001-2.734.69-.17v.36s.18-.472.595-.582a.385.385 0 0 1 .192-.013zm2.171.343v1.211c0 .586.105.672.105.672l-.669.163a1.534 1.534 0 0 1-.09-.248s-.146.381-.651.504c-.53.13-.812-.21-.812-.676 0-.634.36-.834.9-1.065.486-.208.497-.311.499-.492.002-.152-.066-.282-.308-.218a.374.374 0 0 0-.293.358 1.347 1.347 0 0 0-.004.14l-.682.167c-.005-.14.011-.281.047-.416.11-.38.432-.634.99-.768.726-.172.967.157.968.668zm-.723.76a2.509 2.509 0 0 1-.356.216c-.223.113-.324.252-.324.465 0 .186.111.307.313.256.217-.057.367-.265.367-.555v-.381zm3.02-1.836c.106.142.147.334.147.602v.05l-.703.172v-.101c0-.318-.086-.44-.31-.381-.265.069-.373.33-.373.848v.242c0 .527.07.769.377.702.237-.05.292-.246.304-.438l.003-.071.002-.14.702-.171.001.113c-.002.691-.354 1.127-1.015 1.286-.91.22-1.089-.323-1.117-1.177-.027-.833.182-1.494 1.081-1.704.573-.135.79.02.901.168zM7.584 7.122c-.235.055-.358.293-.363.688l.714-.176v-.119c0-.298-.09-.455-.35-.393z" fill="none"/></g></svg>
